Adwaita++-Dark/actions/22/image-filter.svg

<svg height="22" viewBox="0 0 22 22" width="22" xmlns="http://www.w3.org/2000/svg">
  <g fill="#e6ddff" transform="translate(3 3)">
    <path d="m1 1v14h.390625a.50009.50009 0 0 0 .2285156 0h13.3808594v-2h-12v-1.611328c.12-.23253.2395581-.465534.3925781-.683594.81654-1.1635999 2.1463938-2.1462499 4.6835938-2.6562499 2.6739001-.53756 4.2130221-1.4838875 5.0449221-2.6796875.83193-1.1958.910818-2.558875.892578-3.796875a.50005.50005 0 0 0 -.513672-.4980468.50005.50005 0 0 0 -.486328.5136718c.0174 1.1818-.070004 2.2841375-.714844 3.2109375-.64481.92683-1.893222 1.7616313-4.4199218 2.2695313-2.3539999.47324-3.8843062 1.3921843-4.8789062 2.5214844v-8.5898438z"/>
    <path d="m14 2.4003906c-.0434.99924-.228796 2.03425-.878906 2.96875-.83192 1.1958-2.371022 2.1420875-5.0449221 2.6796875-2.5372.51006-3.8669938 1.49265-4.6835938 2.6562499-.15302.21806-.2725781.451064-.3925781.683594v1.611328h11z" opacity=".3"/>
  </g>
</svg>

<svg xmlns="http://www.w3.org/2000/svg" width="22" height="22" viewBox="0 0 22 22">
 <defs>
  <style id="current-color-scheme" type="text/css">
   .ColorScheme-Text { color:#E6DDFF; } .ColorScheme-Highlight { color:#4285f4; }
  </style>
 </defs>
 <path style="fill:currentColor" class="ColorScheme-Text" d="M 1 1 L 1 15 L 1.390625 15 A 0.50009 0.50009 0 0 0 1.6191406 15 L 15 15 L 15 13 L 3 13 L 3 11.388672 C 3.12 11.156142 3.2395581 10.923138 3.3925781 10.705078 C 4.2091181 9.5414781 5.5389719 8.5588281 8.0761719 8.0488281 C 10.750072 7.5112681 12.289194 6.5649406 13.121094 5.3691406 C 13.953024 4.1733406 14.031912 2.8102656 14.013672 1.5722656 A 0.50005 0.50005 0 0 0 13.5 1.0742188 A 0.50005 0.50005 0 0 0 13.013672 1.5878906 C 13.031072 2.7696906 12.943668 3.8720281 12.298828 4.7988281 C 11.654018 5.7256581 10.405606 6.5604594 7.8789062 7.0683594 C 5.5249063 7.5415994 3.9946 8.4605437 3 9.5898438 L 3 1 L 1 1 z" transform="translate(3 3)"/>
 <path style="fill:currentColor;opacity:0.3" class="ColorScheme-Text" d="M 14 2.4003906 C 13.9566 3.3996306 13.771204 4.4346406 13.121094 5.3691406 C 12.289174 6.5649406 10.750072 7.5112281 8.0761719 8.0488281 C 5.5389719 8.5588881 4.2091781 9.5414781 3.3925781 10.705078 C 3.2395581 10.923138 3.12 11.156142 3 11.388672 L 3 13 L 14 13 L 14 2.4003906 z" transform="translate(3 3)"/>
</svg>
